X:1
T:LLOYD
M:C
L:1/4
K:F
C:C. Howard, 1856-1927
S:The Methodist Hymn-Book with Tunes (London, 1933), Additional Tune 29
V:1
A2AB|c3F|E2G2|F4|
V:2
F2FE|F3C|C2C2|C4|
V:3
C2CC|C3A,|G,2B,2|A,4|
V:4
F,2F,G,|A,3C,|C,2C,2|F,4|
V:1
A2Bc|d2G2|G4|
V:2
F2FF|F2F2|E4|
V:3
C2CC|B,2D2|C4|
V:4
F,2G,A,|B,2=B,2|C4|
V:1
e2dc|f3c|B2c2|A4|
V:2
G2GG|F3F|F2E2F4|
V:3
C2CC|C3C|D2C2|C4|
V:4
B,2B,B,|A,3A,|G,2C,2|F,4|
V:1
c2BG|D2E2|F4|]
V:2
_E2DD|D2C2|C4|]
V:3
F,2F,G,|B,A,G,B,|[A,4F,4]|]
V:4
A,,2B,,B,,|B,,2C,2|F,,4|]
